svgs/sharp-regular/stopwatch.svg

<svg xmlns="http://www.w3.org/2000/svg" viewBox="0 0 448 512"><!--! Font Awesome Pro 6.6.0 by @fontawesome - https://fontawesome.com License - https://fontawesome.com/license (Commercial License) Copyright 2024 Fonticons, Inc. --><path d="M144 0L304 0l0 48-56 0 0 49.4c43.4 5 82.8 23.3 113.8 50.9L391 119l17-17L441.9 136l-17 17-31 31c24 33.9 38.1 75.3 38.1 120c0 114.9-93.1 208-208 208S16 418.9 16 304C16 197.2 96.4 109.3 200 97.4L200 48l-56 0 0-48zm80 464a160 160 0 1 0 0-320 160 160 0 1 0 0 320zm24-248l0 104 0 24-48 0 0-24 0-104 0-24 48 0 0 24z"/></svg>

<svg xmlns="http://www.w3.org/2000/svg" viewBox="0 0 448 512"><!--! Font Awesome Pro 6.4.0 by @fontawesome - https://fontawesome.com License - https://fontawesome.com/license (Commercial License) Copyright 2023 Fonticons, Inc. --><path d="M144 0H304V48H248V97.4c43.4 5 82.8 23.3 113.8 50.9L391 119l17-17L441.9 136l-17 17-31 31c24 33.9 38.1 75.3 38.1 120c0 114.9-93.1 208-208 208S16 418.9 16 304C16 197.2 96.4 109.3 200 97.4V48H144V0zm80 464a160 160 0 1 0 0-320 160 160 0 1 0 0 320zm24-248V320v24H200V320 216 192h48v24z"/></svg>
